icons/desktop/16/svg/hand-16.svg

<svg width="16" height="16" viewBox="0 0 16 16" fill="none" xmlns="http://www.w3.org/2000/svg">
<path d="M5.25142 1.49121C5.66523 1.49143 6.00142 1.82734 6.00142 2.24121V9.18262C6.00142 9.46743 5.84013 9.7274 5.58443 9.85449C5.32854 9.98243 5.02426 9.95204 4.79829 9.78125L3.77974 9.00879C3.75283 8.98785 3.72651 8.96629 3.70259 8.94336C3.42459 8.66337 2.96698 8.66236 2.68599 8.94336C2.40521 9.22437 2.40708 9.67903 2.68599 9.95996L7.67036 13.9336C8.1913 14.2955 8.84591 14.5019 9.52681 14.502H10.1918C11.0097 14.502 11.7958 14.2001 12.4047 13.6533C13.0987 13.0274 13.4994 12.1312 13.4995 11.1953V3.84375C13.4996 3.42985 13.8355 3.09375 14.2495 3.09375C14.6632 3.09399 14.9993 3.43 14.9995 3.84375V11.1943C14.9994 12.5542 14.4186 13.8557 13.4077 14.7666C12.5227 15.5626 11.3818 16 10.1928 16H9.52779C8.53787 16 7.58484 15.6998 6.7729 15.1318L1.68794 11.0742C0.760942 10.1522 0.761419 8.74486 1.62642 7.88086C2.40943 7.0981 3.63451 7.02632 4.50142 7.65625V2.24121C4.50142 1.82721 4.83742 1.49121 5.25142 1.49121Z" fill="black"/>
<path d="M8.25044 0C8.66446 0.000230806 9.00044 0.335929 9.00044 0.75V7.25C9.00044 7.66407 8.66446 7.99977 8.25044 8C7.83623 8 7.50044 7.66421 7.50044 7.25V0.75C7.50044 0.335786 7.83623 0 8.25044 0Z" fill="black"/>
<path d="M11.2504 1C11.6645 1.00023 12.0004 1.33593 12.0004 1.75V7.25C12.0004 7.66407 11.6645 7.99977 11.2504 8C10.8362 8 10.5004 7.66421 10.5004 7.25V1.75C10.5004 1.33579 10.8362 1 11.2504 1Z" fill="black"/>
</svg>

<!-- This Source Code Form is subject to the terms of the Mozilla Public
   - License, v. 2.0. If a copy of the MPL was not distributed with this
   - file, You can obtain one at http://mozilla.org/MPL/2.0/. -->
<svg xmlns="http://www.w3.org/2000/svg" width="16" height="16" fill="context-fill" fill-opacity="context-fill-opacity" viewBox="0 0 16 16">
    <path d="M5.251 1.491a.75.75 0 0 1 .75.75v6.942a.75.75 0 0 1-1.203.598L3.78 9.01a1 1 0 0 1-.077-.066.72.72 0 0 0-1.017 1.017l4.984 3.974c.521.362 1.176.568 1.857.568h.665a3.31 3.31 0 0 0 3.307-3.307V3.844a.75.75 0 0 1 1.5 0v7.35c0 1.36-.58 2.662-1.591 3.573A4.8 4.8 0 0 1 10.193 16h-.665c-.99 0-1.943-.3-2.755-.868l-5.085-4.058c-.927-.922-.927-2.33-.062-3.193a2.224 2.224 0 0 1 2.875-.225V2.241a.75.75 0 0 1 .75-.75" />
    <path d="M8.25 0A.75.75 0 0 1 9 .75v6.5a.75.75 0 0 1-1.5 0V.75A.75.75 0 0 1 8.25 0M11.25 1a.75.75 0 0 1 .75.75v5.5a.75.75 0 0 1-1.5 0v-5.5a.75.75 0 0 1 .75-.75" />
</svg>
